packages/core/src/svgs/bist.svg

<svg width="24" height="24" viewBox="0 0 24 24" fill="none" xmlns="http://www.w3.org/2000/svg">
<g clip-path="url(#clip0_31_7024)">
<path d="M0 0H24V24H0V0Z" fill="url(#paint0_linear_31_7024)"/>
<path d="M16.0157 13.9801C15.659 13.3132 15.0907 12.7837 14.4003 12.4749C13.7098 12.1662 12.9363 12.0956 12.2014 12.2744L12.3471 17.0358L14.1386 16.9286C15.1886 16.7315 17.04 15.8658 16.0157 13.9801Z" fill="url(#paint1_linear_31_7024)"/>
<path d="M13.6029 16.7744C15.2958 15.2316 14.2029 13.5773 13.4486 12.9473L11.9829 14.0058L9.84863 16.1916L10.1529 16.8344C10.5986 17.4558 11.9101 18.3173 13.6029 16.7744Z" fill="url(#paint2_linear_31_7024)"/>
<path d="M9.42854 16.0841C13.0028 16.6156 13.7014 14.4127 13.6028 13.2384L8.14282 13.0713L9.42854 16.0884V16.0841Z" fill="url(#paint3_linear_31_7024)"/>
<path d="M7.17435 12.9555L6.88721 10.5126L7.48721 10.2212L8.68721 11.0783L8.61864 12.7969L7.17435 12.9555Z" fill="url(#paint4_linear_31_7024)"/>
<path fill-rule="evenodd" clip-rule="evenodd" d="M10.9157 4.58559C11.2445 4.3927 11.6188 4.29102 12 4.29102C12.3812 4.29102 12.7555 4.3927 13.0843 4.58559L17.7985 7.34987C18.1213 7.5392 18.3888 7.80972 18.5745 8.13454C18.7602 8.45936 18.8577 8.82714 18.8571 9.2013V14.7984C18.8577 15.1726 18.7602 15.5404 18.5745 15.8652C18.3888 16.19 18.1213 16.4605 17.7985 16.6499L13.0843 19.4184C12.7555 19.6113 12.3812 19.713 12 19.713C11.6188 19.713 11.2445 19.6113 10.9157 19.4184L6.2014 16.6499C5.87867 16.4605 5.61114 16.19 5.42542 15.8652C5.23971 15.5404 5.14228 15.1726 5.14282 14.7984V9.2013C5.14228 8.82714 5.23971 8.45936 5.42542 8.13454C5.61114 7.80972 5.87867 7.5392 6.2014 7.34987L10.9157 4.5813V4.58559ZM7.28568 10.7142H7.29425C7.63711 10.847 8.4514 11.1556 8.5714 12.4284L8.55425 12.4242C8.01854 12.227 7.32854 11.9742 7.28568 10.7142ZM10.7143 6.85702C9.59568 7.34559 8.78568 8.4213 8.78568 9.49273V13.7142H8.79425C8.82624 14.2324 8.97551 14.7366 9.23081 15.1887C9.48611 15.6409 9.84076 16.0291 10.268 16.3242C10.6953 16.6192 11.1839 16.8134 11.6972 16.892C12.2104 16.9706 12.7348 16.9316 13.2308 16.778C13.7268 16.6244 14.1814 16.3601 14.5603 16.0051C14.9392 15.6501 15.2326 15.2137 15.4183 14.7288C15.6039 14.2439 15.677 13.7232 15.632 13.2059C15.587 12.6886 15.4251 12.1883 15.1585 11.7427C14.9239 11.411 14.6101 11.1431 14.2456 10.9635C13.8811 10.7838 13.4774 10.6981 13.0714 10.7142C11.16 10.7142 10.8428 11.8113 10.7185 12.2356L10.7143 12.2527V6.85702ZM10.7143 12.257L10.8171 12.197C11.2341 11.937 11.7106 11.788 12.2014 11.7642C12.8528 11.7642 13.7143 12.2356 13.7143 13.2856C13.7143 14.7256 12.2143 14.7856 12.2143 14.7856C12.2143 14.7856 10.7143 14.687 10.7143 13.4056V12.2527V12.257Z" fill="white"/>
</g>
<defs>
<linearGradient id="paint0_linear_31_7024" x1="-1.16571" y1="12" x2="24" y2="12.51" gradientUnits="userSpaceOnUse">
<stop stop-color="#F68C1E"/>
<stop offset="1" stop-color="#FAB242"/>
</linearGradient>
<linearGradient id="paint1_linear_31_7024" x1="12.6986" y1="12.5401" x2="14.0871" y2="14.8072" gradientUnits="userSpaceOnUse">
<stop stop-color="#FFCC19"/>
<stop offset="1" stop-color="#FEB043" stop-opacity="0"/>
</linearGradient>
<linearGradient id="paint2_linear_31_7024" x1="13.3029" y1="13.5044" x2="12.1372" y2="17.6316" gradientUnits="userSpaceOnUse">
<stop stop-color="#FBCA1A"/>
<stop offset="0.62" stop-color="#FBAA1A" stop-opacity="0"/>
</linearGradient>
<linearGradient id="paint3_linear_31_7024" x1="12.15" y1="14.6184" x2="11.2928" y2="13.2856" gradientUnits="userSpaceOnUse">
<stop stop-color="#FAAF16"/>
<stop offset="1" stop-color="#F7A41A" stop-opacity="0"/>
</linearGradient>
<linearGradient id="paint4_linear_31_7024" x1="7.20006" y1="10.8426" x2="8.27149" y2="12.4112" gradientUnits="userSpaceOnUse">
<stop stop-color="#E7C13B"/>
<stop offset="1" stop-color="#FAAF16" stop-opacity="0"/>
</linearGradient>
<clipPath id="clip0_31_7024">
<rect width="24" height="24" fill="white"/>
</clipPath>
</defs>
</svg>

<svg xmlns="http://www.w3.org/2000/svg" width="24" height="24" fill="none" viewBox="0 0 24 24"><g clip-path="url(#a)"><path fill="url(#b)" d="M0 0h24v24H0z"/><path fill="url(#c)" d="M16.016 13.98a3.41 3.41 0 0 0-3.815-1.706l.146 4.762 1.792-.107c1.05-.197 2.901-1.063 1.877-2.949"/><path fill="url(#d)" d="M13.603 16.774c1.693-1.542.6-3.197-.154-3.827l-1.466 1.059-2.134 2.186.304.642c.446.622 1.757 1.483 3.45-.06"/><path fill="url(#e)" d="M9.429 16.084c3.574.532 4.272-1.671 4.174-2.846l-5.46-.167 1.286 3.017z"/><path fill="url(#f)" d="m7.174 12.956-.287-2.443.6-.292 1.2.857-.068 1.719z"/><path fill="#fff" fill-rule="evenodd" d="M10.916 4.586a2.14 2.14 0 0 1 2.168 0L17.8 7.35A2.14 2.14 0 0 1 18.857 9.2v5.597A2.14 2.14 0 0 1 17.8 16.65l-4.715 2.768a2.14 2.14 0 0 1-2.168 0L6.2 16.65a2.14 2.14 0 0 1-1.058-1.852V9.201A2.14 2.14 0 0 1 6.2 7.35l4.715-2.769zm-3.63 6.128h.008c.343.133 1.157.442 1.277 1.714l-.017-.004c-.535-.197-1.225-.45-1.268-1.71m3.428-3.857c-1.118.489-1.928 1.564-1.928 2.636v4.221h.008a3.428 3.428 0 1 0 6.365-1.971 2.44 2.44 0 0 0-2.088-1.029c-1.911 0-2.228 1.097-2.352 1.522l-.005.017zm0 5.4.103-.06a2.9 2.9 0 0 1 1.384-.433c.652 0 1.513.472 1.513 1.522 0 1.44-1.5 1.5-1.5 1.5s-1.5-.099-1.5-1.38v-1.153z" clip-rule="evenodd"/></g><defs><linearGradient id="b" x1="-1.166" x2="24" y1="12" y2="12.51" gradientUnits="userSpaceOnUse"><stop stop-color="#F68C1E"/><stop offset="1" stop-color="#FAB242"/></linearGradient><linearGradient id="c" x1="12.699" x2="14.087" y1="12.54" y2="14.807" gradientUnits="userSpaceOnUse"><stop stop-color="#FFCC19"/><stop offset="1" stop-color="#FEB043" stop-opacity="0"/></linearGradient><linearGradient id="d" x1="13.303" x2="12.137" y1="13.504" y2="17.632" gradientUnits="userSpaceOnUse"><stop stop-color="#FBCA1A"/><stop offset=".62" stop-color="#FBAA1A" stop-opacity="0"/></linearGradient><linearGradient id="e" x1="12.15" x2="11.293" y1="14.618" y2="13.286" gradientUnits="userSpaceOnUse"><stop stop-color="#FAAF16"/><stop offset="1" stop-color="#F7A41A" stop-opacity="0"/></linearGradient><linearGradient id="f" x1="7.2" x2="8.271" y1="10.843" y2="12.411" gradientUnits="userSpaceOnUse"><stop stop-color="#E7C13B"/><stop offset="1" stop-color="#FAAF16" stop-opacity="0"/></linearGradient><clipPath id="a"><path fill="#fff" d="M0 0h24v24H0z"/></clipPath></defs></svg>
